X: 6
M:2/4
L:1/16
K:G
vDGB2 cBAB | dBcA BGFG | DGB2 cBAB | dBcA BGFE |
|]vgdBd gdBd | eafa gfed | cBcd edef | gfge d^def |
gdBd gdBd | eafa gfed | cBcd edef | gdcA G2z2 |]


